X:1
T: Miss Stewart
C:Niel Gow
R:Reel
Q: 232
K:A
M:4/4
L:1/8
|:e|AA cA eA cA|=GG BG dG B=g|AA cA eA cA|Ea ef cA Ae|
AA cA eA cA|=GG BG dG B=g|AA cA eA cA|Ea ef cA AB|
Aa ga ea ca|B=g dg B=G GB|Aa ga ea ca|fa ef cA AB|
Aa ga ea ca|B=g dg B=G GB|AA cA dB cA|Ea ef cA A:|
